X:198
T: KRAMBAMBULI DAS IST DER TITEL DES TRANKS
N: B0682
O: Europa, Mitteleuropa, Deutschland
R: Scherz - Lied
M: 2/4
L: 1/16
K: C
G,2 | C4B,2A,2 | G,6G,2 | A,2G,2A,2B,2 | C2G,2G,2
G,2 | A,2G,2F,2E,2 | A,2G,2F,2E,2 | D,4G,4 | G,4z2
G,2 | C4B,2A,2 | G,6G,2 | A,2G,2A,2B,2 | C2G,2G,2
G,2 | A,2G,2F,2E,2 | A,2G,2F,2E,2 | D,4G,4 | G,4z2
G,2 | E,2G,2G,2G,2 | A,2G,2G,2
G,2 | E,2G,2G,2G,2 | A,2G,2G,2
G,2 | C4D4 | E3CC2C2 | D4B,4 | C4z2
G,2 | E,2G,2G,2G,2 | A,2G,2G,2
G,2 | E,2G,2G,2G,2 | A,2G,2G,2
G,2 | C4D4 | E3CC2C2 | D4B,4 | C4z2

